static/img/icons/socials/small-github.svg

<?xml version="1.0" encoding="UTF-8"?>
<svg width="22px" height="22px" viewBox="0 0 22 22" version="1.1" xmlns="http://www.w3.org/2000/svg" xmlns:xlink="http://www.w3.org/1999/xlink">
    <!-- Generator: Sketch 49.1 (51147) - http://www.bohemiancoding.com/sketch -->
    <defs></defs>
    <g id="Page-1" stroke="none" stroke-width="1" fill="none" fill-rule="evenodd">
        <g id="Landing-page" transform="translate(-483.000000, -7369.000000)" fill="#C7CBFD">
            <g id="our-team" transform="translate(390.000000, 6384.000000)">
                <g id="Group-23" transform="translate(0.000000, 146.000000)">
                    <g id="Group-2-Copy" transform="translate(0.000000, 470.000000)">
                        <g id="Group-22">
                            <g id="Group-8" transform="translate(93.000000, 369.000000)">
                                <g id="Group-19">
                                    <path d="M10.9993125,0 C4.92525,0 0,4.94408388 0,11.0442952 C0,15.9228076 3.1515,20.0620888 7.5233125,21.5226055 C8.0733125,21.6240687 8.2740625,21.2830974 8.2740625,20.9904418 C8.2740625,20.7281562 8.2644375,20.0337896 8.2589375,19.1123388 C5.198875,19.7797866 4.5533125,17.6318055 4.5533125,17.6318055 C4.0535,16.3562691 3.3323125,16.0166783 3.3323125,16.0166783 C2.333375,15.3312845 3.4079375,15.345089 3.4079375,15.345089 C4.511375,15.4230845 5.0923125,16.4832706 5.0923125,16.4832706 C6.0740625,18.1708715 7.667,17.6835724 8.294,17.40058 C8.3936875,16.686887 8.6783125,16.2002782 8.9925,15.9241881 C6.5498125,15.6453371 3.982,14.6983479 3.982,10.4665766 C3.982,9.26075295 4.4103125,8.27511122 5.1143125,7.5027491 C5.000875,7.22320785 4.6234375,6.1009015 5.2215625,4.58033514 C5.2215625,4.58033514 6.1455625,4.28353826 8.2465625,5.71230465 C9.1245,5.46727466 10.065,5.34510478 11.0006875,5.34027321 C11.935,5.34510478 12.8761875,5.46727466 13.7548125,5.71230465 C15.8544375,4.28353826 16.776375,4.58033514 16.776375,4.58033514 C17.3765625,6.1009015 16.999125,7.22320785 16.8856875,7.5027491 C17.5910625,8.27511122 18.016625,9.26075295 18.016625,10.4665766 C18.016625,14.7087013 15.4446875,15.6425762 12.9944375,15.9159054 C13.3890625,16.2568767 13.7410625,16.9305366 13.7410625,17.961043 C13.7410625,19.4374349 13.7273125,20.6280735 13.7273125,20.9904418 C13.7273125,21.2858583 13.9253125,21.6295905 14.4835625,21.5212251 C18.85125,20.0579474 22,15.9214272 22,11.0442952 C22,4.94408388 17.07475,0 10.9993125,0" id="Github"></path>
                                </g>
                            </g>
                        </g>
                    </g>
                </g>
            </g>
        </g>
    </g>
</svg>

<svg width="22" height="22" xmlns="http://www.w3.org/2000/svg"><path d="M11 0C4.924 0 0 4.944 0 11.044c0 4.879 3.151 9.018 7.523 10.479.55.101.751-.24.751-.533 0-.262-.01-.956-.015-1.878-3.06.668-3.706-1.48-3.706-1.48-.5-1.276-1.22-1.615-1.22-1.615-1-.686.075-.672.075-.672 1.103.078 1.684 1.138 1.684 1.138.982 1.688 2.575 1.2 3.202.918.1-.714.384-1.2.698-1.477-2.442-.279-5.01-1.226-5.01-5.457 0-1.206.428-2.192 1.132-2.964-.113-.28-.49-1.402.108-2.923 0 0 .924-.296 3.025 1.132A10.521 10.521 0 0 1 11 5.34c.934.005 1.875.127 2.754.372 2.1-1.428 3.021-1.132 3.021-1.132.6 1.52.223 2.643.11 2.923.705.772 1.13 1.758 1.13 2.964 0 4.242-2.571 5.176-5.022 5.449.395.34.747 1.015.747 2.045 0 1.476-.014 2.667-.014 3.03 0 .295.198.639.757.53A11.043 11.043 0 0 0 22 11.044C22 4.944 17.075 0 11 0" fill="#C7CBFD" fill-rule="evenodd"/></svg>
